X:311
T: WIR STUDENTEN LEBEN TAEGLICH MUNTER
N: F0538
O: Europa, Mitteleuropa, Deutschland
R: Studenten -, Trink - Lied
M: 3/4
L: 1/16
K: G
 | G3GG4D4 | B3BB4G4
B3cd6e2 | d3cc4B2z2
G3GG4D4 | B3BB4G4
B3cd6e2 | d3cc4B2z2
d3dd4G4 | e3ee6z2
d3dd4c2B2 | B3AA6z2
d3dB4d2=f2 | e3ee8
d3cB4c2F2 | A3GG6z2

